X:226
T:Fire Down Below (e)
M:4/4
L:1/8
K:D
Q:1/4=150
A2A>A BF E3B|(A>G)A>B (A>G)A2|D2F>E D4||
A4 F4|\
M:2/4
L:1/8
Q:1/4=150
D3F|\
M:4/4
L:1/8
Q:1/4=150
A>AG>F E3F|A>AF>D B>BG2|F2E>E D4||
